X:1
T:Ayez pitié
T:Jean de Castro
T:Source : La fleur des chansons à 3---Louvain---P.Phalèse---1574. Editor : André Vierendeels (11/08/18) Notes : Original clefs : G2, C2, C3 Original note values have been halved Editorial accidentals above the staff
T:Ayez pitié
T:©
T:©
T:©
T:©
C:Jean de Castro
Z:©
%%score [ 1 2 3 ]
L:1/8
Q:1/4=120
M:2/2
K:F
V:1 treble nm="Soprano 1" snm="S 1"
V:2 treble nm="Soprano 2" snm="S 2"
V:3 treble nm="Alto" snm="A"
V:1
 z4 d4 | d2 d2 f4- | f2 d2 c2 c2 | d8 | z4 d4 | d2 e2 f3 e | d2 B2 A2 A2 | =B3 c dc/B/ A2 | %8
w: Ay-|ez pi- tié|_ de vo- stre'a-|mant,|ay-|ez pi- tié _|_ de vo- stre'a-|* * * * * mant|
 z2 g2 g2 ^f2 | g2 G2 B4- | B2 A2 B2 d2 | c2 f2 z2 c2 | B2 G2 d2 B2 | A2 f4 e2 | d4 c4 | %15
w: qui pour vous|a le cueur|_ tran- si, qui|pour vous, qui|pour vous a le|cueur, a le|cueur tran-|
 =B2 d2 c2 B2 | A2 A4 G2- | GG F2 z2 c2 | A2 d2 ^c2 d2- | d2 c4 B2 | A2 dd A2 c2 | G>AB>c d2 ff | %22
w: si, si le lais-|sez, si le|_ lais- sez, si|le lais- sez en|_ ce tour-|ment, mou- rir luy con-|vient, _ _ _ _ mou- rir|
 c2 _e2 d4 | z2 c3 c G2 |"^b" =B2 d2 z2 cc | G2 B2 d3 c/B/ | A2 B2 A4 | =B8 |] %28
w: luy con- vient,|mou- rir luy|con- vient, mou- rir|luy con- vient _ _|_ sans mer-|cy.|
V:2
 G4 G2 G2 | B6 F2 | A2 B3 A/G/ A2 | B2 z B2 G2 ^F | G2 G2 G2 A2 | B2 G2 F2 A2- | AG G4 F2 | %7
w: Ay- ez pi-|tié de|vo- stre'a- * * *|mant, de vo- stre'a-|mant, ay- ez pi-|tié de vo- stre'a-||
 G4 z2 d2 | d2 c2 B2 A2 | G8 | _E4 D2 z B | A3 F G2 A2 | G2 E2 D2 z G | F2 D2 A3 A | %14
w: mant, qui|pour vous a le|cueur|tran- si, qui|pour vous a le|cueur tran- si, qui|pour vous a le|
 D2 G3 F/E/ F2 | G4 z2 G2- | G2 F4 E2 | D4 z2 A2 | c2 F2 A2 F2 | E4 G4 | F2 z D F2 AA | %21
w: cueur tran- * * *|si, si|_ le lais-|sez, si|le lais- sez en|ce tour-|ment, mou- rir, mou- rir|
 E>F G2 z B A2- | A2 cc G2 B2 | A4 z2 cc |"^b" G2 B2 A2 AA | E2 G2 D2 G2 | ^F2 G3 F/E/ F2 | G8 |] %28
w: luy _ _ mou- rir,|_ mou- rir luy con-|vient, mou- rir|luy con- vient, mou- rir|luy con- vient sans|mer- * * * *|cy.|
V:3
 z8 | z4 D4 | D2 D2 F4 | z2 G2 G2 A2 | B3 A G2 ^F2 | G2 C2 D4- | D8 | z2 G2 G2 ^F2 | G2 C2 D2 D2 | %9
w: |Ay-|ez pi- tié,|ay- ez pi-|tié, _ _ de|vo- stre'a- mant,|_|qui pour vous|a le cueur, le|
 _E8 | C4 B,4 | z2 D2 C2 F2 | z2 C2 B,2 G,2 | D6 C2 | B,4 A,4 |"^#""^#" G,4 z4 | D4 C4 | B,4 A,4- | %18
w: cueur|tran- si,|qui pour vous,|qui pour vous|a le|cueur tran-|si,|si le|lais- sez|
 A,2 B,2 A,4- | A,4 G,4 | D2 z2 DD A,2 | C2 G,2 GG D2 | F2 C2 z2 GG | D2 F2 C4 | %24
w: _ en ce|_ tour-|ment, mou- rir luy|con- vient, mou- rir luy|con- vient mou- rir|luy con- vient|
"^b" z2 B,B, F,2 A,2 | C2 G,3 A,B,C | D6 D2 | G,8 |] %28
w: mou- rir luy con-|vent sans _ _ _|_ mer-|cy.|

